X:1
T:James Gibb editions
T:Psalm 54 (Becker) - Schütz
%%score [ ( 1 2 ) ( 3 4 ) ]
L:1/8
Q:1/4=100
M:2/2
K:F
V:1 treble nm="Soprano Alto"
V:2 treble 
V:3 bass nm="Tenor Bass"
V:4 bass 
V:1
"^Cornelius Becker\n(1561-1604)""^Psalm 54, SWV 151""^Heinrich Schütz\n(1585-1672)" B4 G4 | %1
w: ~Hilf mir,|
 B2 A4 G2 | A2 B2 c4 | d4 c4 | B2 _e4 d2 | c2 c2 B4 |[M:2/2] F4 G4 | A2 B4 A2 | c4 A4 | d4 B4 | %10
w: Gott, durch den|Na- men dein,|schaff mir|Recht, Herr, und|seih da- rein,|durch dei-|ne Macht mich|ret- te,|er- hör|
 G2 c4 c2 | A2 F2 B4- | B2 B2 G2 B2 | (c3 B A2) G2 | (^F2 G4 F2) | G8 |] %16
w: mein G'bet ver-|nimm mein Red,|* hilf mir aus|mei\- * * nen|Nö\- * *|ten.|
V:2
 G4 D4 | D2 D4 B,2 | D2 D2 F4 | F4 F4 | D2 G4 F2 | F2 F2 F4 |[M:2/2] D4 B,4 | F2 D4 F2 | G4 ^F4 | %9
w: ||||||durch dei-|ne Macht mich|ret- te,|
 =F4 (D4 | _E2) G2 F4- | F2 C2 F2 F2 | _E6 G2 | G2 G2 F2 D2 | D8 | D8 |] %16
w: er- hör|* mein G'bet|* ver- nimm mein|Red, hilf|mir aus al- len|Nö-|ten.|
V:3
 D4 B,4 | G,2 ^F,4 G,2 | ^F,2 G,2 A,4 | B,4 A,4 | B,2 C2 G,2 B,2- | B,2 A,2 B,4 |[M:2/2] B,4 G,4 | %7
 D2 B,4 C2 | G,4 A,4 | A,4 B,4- | B,2 _E2 C4- | C2 A,2 D2 D2 | %12
"^2. Stolze sich setzen wider mich, \nverfolgen mich ganz trotziglich,\nGottsfurcht han sie vergessen, \nhaben mein Seel in Ungefäll\nzu bringen sich vermessen.\n\n3. Dennoch mein Gott mir steht zur Seit, \nder meine Seel erhält allzeit,\ner wird die Feind bezahlen. \nDurch deine Treu, Herr, steh mir bei,\nverstör sie allzumale.\n\n4. Ich will dir Freudenopfer tun, \ndein´m Namen sagen Ehr und Ruhm ,\ndir ich mich ganz vertraue, \ndein göttlich Kraft mach mich sieghaft,\ndaß ich am Feind Lust schaue." B,6 _E2 | %13
 _E2 E2 C2 B,2 | A,8 | =B,8 |] %16
V:4
 G,4 G,4 | G,2 D,4 _E,2 | D,2 G,2 =F,4 | B,,4 F,4 | G,2 C,4 D,2 | F,2 F,2 B,,4 |[M:2/2] B,,4 _E,4 | %7
 D,2 G,4 F,2 | _E,4 D,4 | D,4 (G,3 F, | _E,2) C,2 F,4- | F,2 F,2 D,2 B,,2 | _E,6 E,2 | %13
 C,2 _E,2 F,2 G,2 | D,8 | G,8 |] %16

